rospo-icon-theme-classic-common/16x16/apps/desktop-environment-unity.svg

<svg height="16" width="16" xmlns="http://www.w3.org/2000/svg"><circle cx="8" cy="8" fill="#a43b84" r="8"/><path d="m4 3v6s0 4 3 4h5v-10h-2v8h-2.5c-1.5 0-1.5-2-1.5-2v-6z" fill="#fff"/></svg>

<svg xmlns="http://www.w3.org/2000/svg" width="16" height="16" version="1">
 <circle style="fill:#a43b84" cx="8" cy="8" r="8"/>
 <path style="fill:#ffffff" d="M 4,3 V 9 C 4,9 4,13 7,13 H 12 V 3 H 10 V 11 H 7.5 C 6,11 6,9 6,9 V 3 Z"/>
</svg>
